!!!!SEGMENT: pl-gd--ee-1638--003-022_marenzio-luca--madrigali-a-quatro-voci-zefiro-torna.krn
!!!cenid: 15xx:996
!!!COM: Marenzio, Luca
!!!COM-rismID: pe30003955
!!!CDT: ~1553-1599/08/22
!!!CNT: Italian
!!!GTL: Madrigali a quatro voci
!!!OTL: Zefiro torna
!!!OMV: 022
!!!PDT: 1587
!!!AGN:
!!!SMS-siglum: PL-GD
!!!SMS-shelfmark: Ee 1638
!!!SMS-variant:
!!!SMS-altvar:
!!!SMS-shelfwork: 003-022 G
!!!NIFC-rismSourceID: 1001202747
!!!NIFC-rismChildID: 990039322
!!!NIFC-islandoraID: pl-gd:57883
!!!URL-pdf-islandora: https://repozytorium.nifc.pl/islandora/object/pl-gd%3A57883/datastream/PDF/view
!!!URL-scan: https://polish.musicsources.pl/pl/lokalizacje/galeria/klocki-introligatorskie/655 @EN{Scan on Polish Music Sources Website} @PL{Skany w portalu Dziedzictwo Muzyki Polskiej w otwartym dostępie}
!!!ONB-nifc: UWAGA: zbiór na stronach: Canto: s. 637-653, Alto: s. do 486-501, Tenore: s. do 334-349, Bassus: s. do 182-197. Uwaga: utwory podzielone wg tytułów w spisach treści dostępnych na końcu każdej księgi głosowej.
!!!AIN: 1 alto 1 bass 1 soprn 1 tenor
!!!key: d
**kern	**text	**kern	**text	**kern	**text	**kern	**text
*part4	*part4	*part3	*part3	*part2	*part2	*part1	*part1
*staff4	*staff4	*staff3	*staff3	*staff2	*staff2	*staff1	*staff1
*I"BASSO	*	*I"TENORE	*	*I"ALTO	*	*I"CANTO	*
*I'B	*	*I'T	*	*I'A	*	*I'S	*
*ICvox	*	*ICvox	*	*ICvox	*	*ICvox	*
*Ibass	*	*Itenor	*	*Ialto	*	*Isoprn	*
*clefF3	*	*clefC3	*	*clefC2	*	*clefG2	*
*k[b-]	*	*k[b-]	*	*k[b-]	*	*k[b-]	*
*d:	*	*d:	*	*d:	*	*d:	*
*M2/1	*	*M2/1	*	*M2/1	*	*M2/1	*
*met(C)	*	*met(C)	*	*met(C)	*	*met(C)	*
=1-	=1-	=1-	=1-	=1-	=1-	=1-	=1-
!LO:TX:a:t=Prima parte.	!	!	!	!	!	!	!
!LO:TX:b:t=ZEfiro torna	!	!	!	!LO:TX:t=P:problem:podwójnie zapisany znak przykluczowy: B- b-	!	!LO:TX:a:t=Prima parte.	!
0r	.	2.g\	ZE-	2.b-\	ZE-	2.dd\	ZE-
.	.	8f\	-fi-	8a\	-fi-	8cc\	-fi-
.	.	8e\	-ro	8g\	-ro	8b-\	-ro
.	.	1d	tor-	4f#X\	tor-	2a/	tor-
.	.	.	.	2g\	.	.	.
.	.	.	.	.	.	2g/	-na
.	.	.	.	4f#X\	.	.	.
=2-	=2-	=2-	=2-	=2-	=2-	=2-	=2-
2r	.	2G/	-na	2g\	-na	4r	.
.	.	.	.	.	.	4b-/	e'l
2G\	E'l	4r	.	4r	.	4cc\	bel
.	.	4d\	e'l	4g\	e'l	4.dd\	tem-
4F/	bel	4f\	bel	4a\	bel	.	.
.	.	.	.	.	.	8dd\	-po
4.B-\	tem-	4.f\	tem-	4.b-\	tem-	4dd\	ri-
.	.	.	.	.	.	2cc#X\	-me-
8B-\	-po	8f\	-po	8b-\	-po	.	.
4G\	ri-	4g\	ri-	4b-\	ri-	.	.
=3-	=3-	=3-	=3-	=3-	=3-	=3-	=3-
2A\	-me-	2e\	-me-	1a	-me-	4dd\	-na
.	.	.	.	.	.	2ff\	Ze-
4D/	-na	2d\	-na	.	.	.	.
2d\	Ze-	.	.	.	.	8ee\	-fi-
.	.	.	.	.	.	8dd\	-ro
.	.	1r	.	1a	-na	4ccny\	tor-
8c\	-fi-	.	.	.	.	4cc\	-na
8B-\	-ro	.	.	.	.	.	.
*	*	*	*	*	*	*custos:dd	*
!	!	!	!	!	!	!LO:LB:g=original	!
2A\	tor-	.	.	.	.	2r	.
=4-	=4-	=4-	=4-	=4-	=4-	=4-	=4-
1G	-na	2.g\	Ze-	4r	.	2.dd\	Ze-
.	.	.	.	2b-\	Ze-	.	.
.	.	8f\	-fi-	8a\	-fi-	8cc\	-fi-
.	.	8e\	-ro	8g\	-ro	8b-\	-ro
*	*	*	*	*custos:f#	*	*	*
!	!	!	!	!LO:LB:g=original	!	!	!
1r	.	1d	tor-	4f#X\	tor-	2a/	tor-
.	.	.	.	2g\	.	.	.
.	.	.	.	.	.	2g/	-na
.	.	.	.	4f#X\	.	.	.
=5-	=5-	=5-	=5-	=5-	=5-	=5-	=5-
2r	.	2G/	-na	2g\	-na	4r	.
.	.	.	.	.	.	4b-/	e'l
2G\	e'l	4r	.	4r	.	4cc\	bel
.	.	4d\	e'l	4g\	e'l	4.dd\	tem-
*	*	*custos:f	*	*	*	*	*
!	!	!LO:LB:g=original	!	!	!	!	!
4F/	bel	4f\	bel	4a\	bel	.	.
.	.	.	.	.	.	8dd\	-po
4.B-\	tem-	4.f\	tem-	4.b-\	tem-	4dd\	ri-
.	.	.	.	.	.	2cc#X\	-me-
8B-\	-po	8f\	-po	8b-\	-po	.	.
4G\	ri-	4g\	ri-	4b-\	ri-	.	.
*custos:A	*	*	*	*	*	*	*
!LO:LB:g=original	!	!	!	!	!	!	!
=6-	=6-	=6-	=6-	=6-	=6-	=6-	=6-
2A\	-me-	2e\	-me-	2a\	-me-	4.dd\	-na
.	.	.	.	.	.	16ccny\	.
.	.	.	.	.	.	16b-\	.
2D/	-na	2d\	-na	4a\	-na	2a/	.
.	.	.	.	4a\	E i	.	.
2d\	E i	4r	.	8fny\	fior'	4r	.
.	.	.	.	8g\	.	.	.
.	.	4d\	E i	8a\	.	4cc\	Ei
.	.	.	.	8f\	.	.	.
2c\	fio-	8e\	fior'	2g\	.	8dd\	fior'
.	.	8f\	.	.	.	8ee\	.
.	.	8g\	.	.	.	8ff\	.
.	.	8e\	.	.	.	8dd\	.
=7-	=7-	=7-	=7-	=7-	=7-	=7-	=7-
2B-\	-r'e	2f\	.	4r	.	4ee\	.
.	.	.	.	4d/	e i	4cc\	e i
*	*	*	*	*	*	*custos:b	*
!	!	!	!	!	!	!LO:LB:g=original	!
!	!	!	!	!	!	!LO:N:acc=#	!
2A\	l'her-	2r	.	8c/	fior	8bn\	fior
.	.	.	.	8d/	.	8cc\	.
.	.	.	.	8e/	.	8dd\	.
!	!	!	!	!	!	!LO:N:acc=#	!
.	.	.	.	8c/	.	8bn\	.
*	*	*	*	*custos:d	*	*	*
!	!	!	!	!LO:LB:g=original	!	!	!
2G\	-be	4r	.	2d/	.	2cc\	.
.	.	4d\	e i	.	.	.	.
2c\	e i	8e\	fior	4r	.	4r	.
.	.	8f\	.	.	.	.	.
.	.	8g\	.	4e/	e	4dd\	e
.	.	8e\	.	.	.	.	.
=8-	=8-	=8-	=8-	=8-	=8-	=8-	=8-
2B-\	fior'-	2f\	.	8d/	l'her-	8cc\	l'her-
.	.	.	.	8e/	.	8dd\	.
.	.	.	.	8f\	.	8ee\	.
.	.	.	.	8g\	.	8ff\	.
2A\	-e 	4r	.	4a\	.	4gg\	.
.	.	4c/	e	4a\	-be	4gg\	-be
*	*	*custos:B-	*	*	*	*	*
!	!	!LO:LB:g=original	!	!	!	!	!
2G\	l'her-	8B-/	l'her-	2r	.	4r	.
.	.	8c/	.	.	.	.	.
.	.	8d\	.	.	.	4cc\	ſua
.	.	8e\	.	.	.	.	.
2F/	-be	4f\	.	2a\	ſua	1dd\	dol-
.	.	4f\	-be	.	.	.	.
=9-	=9-	=9-	=9-	=9-	=9-	=9-	=9-
2B-\	ſua	1f	ſua	1b-	dol-	.	.
2A\	dol-	.	.	.	.	1dd	-ce
2G\	-ce	1d	dol-	2b-\	-ce	.	.
2F/	fa-	.	.	2a\	fa-	2cc\	fa-
=10-	=10-	=10-	=10-	=10-	=10-	=10-	=10-
*lig	*	*	*	*lig	*	*	*
1E-X	-mi-	2e-X\	-ce	1g	-mi-	2.b-y/	-mi-
.	.	2d\	fa-	.	.	.	.
.	.	.	.	.	.	8a/	.
.	.	.	.	.	.	8g/	.
*	*	*	*	*	*	*	*
1F	.	1c	-mi-	1f	.	2a/	.
*Xlig	*	*	*	*Xlig	*	*custos:b-	*
!	!	!	!	!	!	!LO:LB:g=original	!
.	.	.	.	.	.	2b-/	-glia
=11-	=11-	=11-	=11-	=11-	=11-	=11-	=11-
1BB-	-glia	2d\	-glia	2f\	-glia	4dd\	E
.	.	.	.	.	.	4dd\	ga-
.	.	4f\	E	1r	.	8cc\	-rir
.	.	.	.	.	.	8b-/	.
.	.	4g\	ga-	.	.	8a/	.
.	.	.	.	.	.	8g/	.
4F/	e	8a\	-rir	.	.	2f/	.
.	.	8g\	.	.	.	.	.
4F/	ga-	8f\	.	.	.	.	.
.	.	8eny\	.	.	.	.	.
2B-\	-rir	2d\	.	4b-\	E	2r	.
.	.	.	.	4b-\	ga-	.	.
=12-	=12-	=12-	=12-	=12-	=12-	=12-	=12-
4F/	e	2r	.	8a\	-rir	4dd\	E
.	.	.	.	8g\	.	.	.
4F/	ga-	.	.	8f\	.	4dd\	ga-
.	.	.	.	8e\	.	.	.
2B-\	-rir	4f\	E	4.d/	.	8cc\	.
.	.	.	.	.	.	8b-\	.
.	.	4g\	ga-	.	.	8a/	.
.	.	.	.	8e/	.	8g/	.
*custos:F	*	*	*	*	*	*	*
!LO:LB:g=original	!	!	!	!g	!	!	!
4F/	e	8a\	-rir	1f	.	2f/	-rir
.	.	8g\	.	.	.	.	.
4F/	ga-	8f\	.	.	.	.	.
.	.	8e\	.	.	.	.	.
2B-\	-rir	2d\	.	.	.	1b-\	Pro-
*	*	*custos:d	*	*custos:g	*	*	*
!	!	!LO:LB:g=original	!	!LO:LB:g=original	!	!	!
=13-	=13-	=13-	=13-	=13-	=13-	=13-	=13-
1G	Pro-	1d	Pro-	1g	Pro-	.	.
.	.	.	.	.	.	2a/	-gne e
2A\	-gne e	2c#X/	-gne e	2e/	-gne e	1a	pian-
1A\	pian-	1c#/	pian-	1e\	pian-	.	.
=14-	=14-	=14-	=14-	=14-	=14-	=14-	=14-
.	.	.	.	.	.	2a/	-ger
2A\	-ger	2c#yX/	-ger	2e/	-ger	2a/	Fi-
!	!	!	!	!	!	!LO:N:acc=#	!
2F#X/	Fi-	2.d\	Fi-	2A/	Fi-	2bn/	-lo-
2G\	-lo-	.	.	2d/	-lo-	1cc\	-me-
.	.	4g\	-lo-	.	.	.	.
*	*	*	*	*	*	*custos:cc	*
!	!	!	!	!	!	!LO:LB:g=original	!
=15-	=15-	=15-	=15-	=15-	=15-	=15-	=15-
1C	-me-	1g	-me-	1e	-me-	.	.
.	.	.	.	.	.	4cc\	-na
.	.	.	.	.	.	4ee\	E
4C/	-na	4g\	-na	4e/	-na	4.ee\	pri-
4c\	e	4g\	E	4e/	E	.	.
.	.	.	.	.	.	8ff\	-ma-
4.c\	pri-	4.g\	pri-	4.cc\	pri-	4ee\	-ue-
.	.	.	.	.	.	4dd\	-ra
8Fny/	-ma-	8a\	-ma-	8cc\	-ma-	.	.
=16-	=16-	=16-	=16-	=16-	=16-	=16-	=16-
4c\	-ue-	4g\	-ue-	4cc\	-ue-	4.cc\	can-
4d\	-ra	4f\	-ra	4a\	-ra	.	.
.	.	.	.	.	.	8cc\	-di-
4.A\	can-	4.e\	can-	4.a\	can-	4dd\	-da e
.	.	.	.	.	.	4dd\	ver-
8A\	-di-	8f\	-di-	8a\	-di-	.	.
4B-\	-da e	4d\	-da	4f\	-da e	2dd\	-mi-
4G\	ver-	4g\	ver-	4b-\	ver-	.	.
2d\	-mi-	2f#X\	-mi-	2a\	-mi-	1dd\	-glia
=17-	=17-	=17-	=17-	=17-	=17-	=17-	=17-
1G	-glia	1g	-glia	1b-	-glia	.	.
.	.	.	.	.	.	4.gg\	Ri-
.	.	.	.	.	.	16ff\	.
.	.	.	.	.	.	16ee\	.
*custos:G	*	*custos:G	*	*custos:g	*	*	*
!LO:LB:g=original	!	!LO:LB:g=original	!	!LO:LB:g=original	!	!	!
2r	.	8G/	Ri-	8g\	Ri-	4.dd\	.
.	.	8A/	.	8f\	.	.	.
.	.	8B-/	.	8g\	.	.	.
.	.	8cny\	.	8a\	.	16cc\	.
.	.	.	.	.	.	16b-y\	.
8G\	Ri-	4d\	.	4.b-\	.	4a/	.
8A\	.	.	.	.	.	.	.
8B-\	.	4G/	-don	.	.	4g/	-don
8c\	.	.	.	16a\	.	.	.
.	.	.	.	16g\	.	.	.
=18-	=18-	=18-	=18-	=18-	=18-	=18-	=18-
4d\	.	2r	.	4f\	.	4.gg\	Ri-
4G\	-don	.	.	4b-\	-don	.	.
.	.	.	.	.	.	16ff\	.
.	.	.	.	.	.	16ee\	.
*	*	*	*	*	*	*custos:dd	*
!	!	!	!	!	!	!LO:LB:g=original	!
2r	.	8G/	Ri-	8g\	Ri-	4.dd\	.
.	.	8A/	.	8f\	.	.	.
.	.	8B-/	.	8g\	.	.	.
.	.	8c/	.	8a\	.	16cc\	.
.	.	.	.	.	.	16b-\	.
8G\	Ri-	4d\	.	4.b-\	.	4a/	.
8A\	.	.	.	.	.	.	.
!	!	!	!	!	!	!LO:N:acc=#	!
8B-\	.	4G/	-don	.	.	2bn/	-don
8c\	.	.	.	16a\	.	.	.
.	.	.	.	16g\	.	.	.
4d\	.	4r	.	4f#X\	.	.	.
2G\	-don	4.d\	Ri-	2g\	-don	4cc\	i
=19-	=19-	=19-	=19-	=19-	=19-	=19-	=19-
.	.	.	.	.	.	1dd	pra-
.	.	8d\	-don	.	.	.	.
4c\	i	4e\	i	4g\	i	.	.
1B-	pra-	1fny	pra-	1b-	pra-	.	.
.	.	.	.	.	.	2cc\	-ti
2F/	-ti e'l	2f\	-ti e'l	2a\	-ti	4r	.
.	.	.	.	.	.	4cc\	e'l
=20-	=20-	=20-	=20-	=20-	=20-	=20-	=20-
2c\	ciel	2e\	ciel	4r	.	2dd\	ciel
.	.	.	.	4g\	e'l	.	.
4r	.	4r	.	2b-\	ciel	4r	.
4G\	e'l	4d\	e'l	.	.	4ff\	e'l
*	*	*	*	*custos:a	*	*	*
!	!	!	!	!LO:LB:g=original	!	!	!
2d\	ciel	2f\	ciel	4r	.	2.dd\	ciel
.	.	.	.	4a\	e'l	.	.
4r	.	4r	.	2.b-\	ciel	.	.
4G\	e'l	4B-/	e'l	.	.	4dd\	ſi
=21-	=21-	=21-	=21-	=21-	=21-	=21-	=21-
4.d\	ciel	4.f\	ciel	.	.	4ee\	raſ-
.	.	.	.	4a\	ſi	4ff#X\	-ſe-
8d\	ſi-	8f\	ſi	.	.	.	.
*	*	*custos:g	*	*	*	*	*
!	!	!LO:LB:g=original	!	!	!	!	!
4c\	-raſ-	4g\	raſ-	4cc\	raſ-	1gg	-re-
4A\	-ſe-	4a\	-ſe-	4cc\	-ſe-	.	.
*custos:G	*	*	*	*	*	*	*
!LO:LB:g=original	!	!	!	!	!	!	!
1G	-re-	2d\	-re-	1b-	-re-	.	.
.	.	2e\	.	.	.	1cc\	-na
=22-	=22-	=22-	=22-	=22-	=22-	=22-	=22-
1F	-na	1f	-na	1a	-na	.	.
.	.	.	.	.	.	2r	.
2B-\	Gio-	2d\	Gio-	1r	.	2dd\	Gio-
4B-\	-ue	4d\	-ue	.	.	4dd\	-ue
4B-\	s'al-	4d\	s'al-	.	.	4dd\	s'al-
*	*	*	*	*	*	*custos:dd	*
!	!	!	!	!	!	!LO:LB:g=original	!
=23-	=23-	=23-	=23-	=23-	=23-	=23-	=23-
2B-\	-le-	2f\	-le-	2b-\	Gio-	2dd\	-le-
2BB-/	-gra	2f\	-gra	4b-\	-ue	2dd\	-gra
.	.	.	.	4b-\	s'al-	.	.
4B-\	Gio-	4f\	Gio-	2b-\	-le-	4dd\	Gio-
8B-\	-ue	8f\	-ue	.	.	8dd\	-ue
8B-\	s'al-	8f\	s'al-	.	.	8dd\	s'al-
4B-\	-le-	4f\	-le-	2b-\	-gra	4dd\	-le-
4G\	-gra	4g\	-gra	.	.	4dd\	-gra
=24-	=24-	=24-	=24-	=24-	=24-	=24-	=24-
4.d\	di	4.f\	di	4a\	Gio-	4.dd\	di
.	.	.	.	8a\	-ue	.	.
8d\	mi-	8f\	mi-	8a\	s'al-	8dd\	mi-
4B-\	-rar	4f\	-rar	4b-\	-le-	4ffny\	-rar
4G\	ſua	4g\	ſua	4b-\	-gra	4ee\	ſua
2B-\	fi-	0f	fi-	4.b-\	di	1dd	fi-
.	.	.	.	8b-\	mi-	.	.
2B-\	-glia	.	.	4dd\	-rar	.	.
.	.	.	.	4cc\	ſua	.	.
=25-	=25-	=25-	=25-	=25-	=25-	=25-	=25-
4BB-/	di	.	.	1b-	fi-	1cc	-glia
4C/	mi-	.	.	.	.	.	.
4D/	-rar	.	.	.	.	.	.
4Eny/	ſua	.	.	.	.	.	.
*custos:F	*	*	*	*	*	*	*
!LO:LB:g=original	!	!	!	!c	!	!	!
2F/	fi-	1f	-glia	1a	-glia	8cc\	L'a-
.	.	.	.	.	.	8dd\	.
.	.	.	.	.	.	8ee\	.
.	.	.	.	.	.	8ff\	.
2F/	-glia	.	.	.	.	4gg\	.
.	.	.	.	.	.	4gg\	-ria
*	*	*	*	*custos:c	*	*	*
!	!	!	!	!LO:LB:g=original	!	!	!
=26-	=26-	=26-	=26-	=26-	=26-	=26-	=26-
1c	L'a-	1r	.	2r	.	2ee\	l'a-
.	.	.	.	8c/	L'a-	1cc	-qua e
.	.	.	.	8d/	.	.	.
.	.	.	.	8e/	.	.	.
.	.	.	.	8fny\	.	.	.
*	*	*custos:c	*	*	*	*	*
!	!	!LO:LB:g=original	!	!	!	!	!
2C/	-ria	8c/	L'a-	4g\	.	.	.
.	.	8d\	.	.	.	.	.
.	.	8e\	.	4g\	-ria	.	.
.	.	8f\	.	.	.	.	.
1c\	l'a-	4g\	.	2e/	la'-	2cc\	la
.	.	4g\	-ria	.	.	.	.
=27-	=27-	=27-	=27-	=27-	=27-	=27-	=27-
.	.	2e\	l'a-	2g\	-qua e	1b-y	ter-
4F/	-qua e	4c/	-qua e	2a\	la	.	.
4F/	la	4f\	la	.	.	.	.
*	*	*	*	*	*	*custos:a	*
!	!	!	!	!	!	!LO:LB:g=original	!
1G	ter-	1d	ter-	1g	ter-	1a	-ra è
=28-	=28-	=28-	=28-	=28-	=28-	=28-	=28-
4.D/	-ra è	2d\	-ra è	4.f\	-ra è;	1dd	d'a-
8E/	d'a-	.	.	8g\	d'a-	.	.
2F/	-mor	2c/	d'a-	2a\	-mor	.	.
4.BB-/	è	2B-/	-mor	4.d/	e	2dd\	-mor
8C/	d'A-	.	.	8e/	d'a-	.	.
2D/	-mor	2A/	pie-	2f\	-mor	2.b-/	pie-
=29-	=29-	=29-	=29-	=29-	=29-	=29-	=29-
4.G\	è	4B-/	-na	4.B-/	è	.	.
.	.	4.G/	e	.	.	8a/	.
8A\	d'A-	.	.	8c/	d'a-	8g/	.
2B-\	-mor	.	.	2d/	-mor	2a/	.
.	.	8A/	d'a-	.	.	.	.
.	.	4B-/	-mor	.	.	.	.
1F	pie-	1c	pie-	1f	pie-	1b-	-na
=30-	=30-	=30-	=30-	=30-	=30-	=30-	=30-
1BB-	-na	1d	-na	1f	-na	2r	.
.	.	.	.	.	.	2dd\	Ogn'-
*	*	*	*	*custos:b-	*	*	*
!	!	!	!	!LO:LB:g=original	!	!	!
1r	.	2g\	Ogn'-	4r	.	4dd\	-a-
.	.	.	.	4b-\	Ogn'-	4dd\	-ni-
.	.	4g\	-a-	4b-\	-a-	8cc\	-mal
.	.	.	.	.	.	8b-/	.
.	.	4g\	-ni-	4b-\	-ni-	8a/	.
.	.	.	.	.	.	8b-/	.
*	*	*custos:f	*	*	*	*	*
!	!	!LO:LB:g=original	!	!	!	!	!
=31-	=31-	=31-	=31-	=31-	=31-	=31-	=31-
1r	.	8f\	-mal	8a\	-mal	2cc\	.
.	.	8e\	.	8g\	.	.	.
.	.	8d\	.	8f\	.	.	.
.	.	8e\	.	8g\	.	.	.
.	.	2f\	.	2a\	.	4r	.
.	.	.	.	.	.	4cc\	d'a-
1F	d'a-	4r	.	4r	.	2.cc\	-mar
.	.	4c/	d'a-	4a\	Ogn'	.	.
.	.	2f\	-mar	4a\	a-	.	.
.	.	.	.	4a\	-ni-	2b-/	ſi
*custos:c	*	*	*	*	*	*	*
!LO:LB:g=original	!	!	!	!	!	!	!
=32-	=32-	=32-	=32-	=32-	=32-	=32-	=32-
2.c\	-mar	4r	.	4.g\	-mal	.	.
.	.	4e\	d'a-	.	.	2a/	ri-
.	.	.	.	8f\	d'a-	.	.
.	.	4.g\	-mar	4e/	-mar	.	.
4G\	ſi	.	.	4d/	ſi	4g/	-con-
.	.	8f\	ſi	.	.	.	.
2A\	ri-	4e\	ri-	2c/	ri-	1a	-ſi-
.	.	4f\	-con-	.	.	.	.
2B-\	-con-	4f\	-ſi-	2d/	-con-	.	.
.	.	8e\	.	.	.	.	.
.	.	8d\	.	.	.	.	.
=33-	=33-	=33-	=33-	=33-	=33-	=33-	=33-
1A	-ſi-	4c#X/	.	1e	-ſi-	1a	-glia
.	.	2d\	.	.	.	.	.
.	.	4c#X/	.	.	.	.	.
*	*	*	*	*	*	*custos:ff	*
!	!	!	!	!	!	!LO:PB:g=original	!
2D/	-glia	2d\	-glia	4.f\	-glia	0r	.
.	.	.	.	8g\	.	.	.
2d\	Ogn'	4r	.	2a\	.	.	.
.	.	4f\	Ogn'-	.	.	.	.
*	*	*custos:f	*	*custos:a	*	*	*
!	!	!LO:PB:g=original	!	!LO:PB:g=original	!	!	!
=34-	=34-	=34-	=34-	=34-	=34-	=34-	=34-
4d\	a-	4f\	-a-	4r	.	.	.
4d\	-ni-	4f\	-ni-	4a\	Ogn'	.	.
8c\	-mal	8e\	-mal	4a\	a-	.	.
8B-\	.	8d\	.	.	.	.	.
8A\	.	8cny\	.	4a\	-ni-	.	.
8B-\	.	8d\	.	.	.	.	.
1c	.	1e	.	8g\	-mal	4r	.
.	.	.	.	8f\	.	.	.
.	.	.	.	8e\	.	4ff\	Ogn'-
.	.	.	.	8f\	.	.	.
.	.	.	.	2g\	.	4ff\	-a-
.	.	.	.	.	.	4ff\	-ni-
=35-	=35-	=35-	=35-	=35-	=35-	=35-	=35-
1F	d'a-	4r	.	4r	.	8ee\	-mal
.	.	.	.	.	.	8dd\	.
.	.	4a\	Ogn'	4cc\	Ogn'	8cc\	.
.	.	.	.	.	.	8dd\	.
.	.	4a\	a-	4cc\	a-	4ee\	.
.	.	4a\	-ni-	4cc\	-ni-	4dd\	d'a-
2.c\	-mar	8g\	-mal	2.cc\	-mal	4cc\	-mar
.	.	8f\	.	.	.	.	.
.	.	8e\	.	.	.	4ff\	ſi
.	.	8f\	.	.	.	.	.
.	.	4g\	.	.	.	4ff\	ri-
4G\	ſi	4g\	d'a-	4b-\	d'a-	8ee\	.
.	.	.	.	.	.	8dd\	.
=36-	=36-	=36-	=36-	=36-	=36-	=36-	=36-
2A\	ri-	4e\	-mar	4.a\	-mar	4cc\	.
.	.	4c/	ſi	.	.	2dd\	-con-
.	.	.	.	8g\	ſi	.	.
2B-\	-con-	4d\	ri-	4f\	ri-	.	.
.	.	4e\	-con-	4g\	-con-	4cc#X\	-ſi-
!	!	!	!	!	!	!LO:N:vis=00	!
1A	-ſi-	4f\	-ſi-	1a	-ſi-	0.dd	-glia.
.	.	8e\	.	.	.	.	.
.	.	8d\	.	.	.	.	.
.	.	2e\	.	.	.	.	.
=37-	=37-	=37-	=37-	=37-	=37-	=37-	=37-
!LO:N:vis=00	!	!LO:N:vis=00	!	!LO:N:vis=00	!	!	!
0D	-glia.	0d	-glia.	0a	-glia.	.	.
==	==	==	==	==	==	==	==
*-	*-	*-	*-	*-	*-	*-	*-
!!!system-decoration: [(s1,s2,s3,s4)]
!!!ENC: Berenika Jozajtis
!!!END: 2022-07-06
!!!ENC: Jan Barakat
!!!END: 2022-07-28
!!!YEC: Copyright 2022 Narodowy Instytut Fryderyka Chopina (https://polishscores.org)
!!!YEM: License CC-BY-4.0 (https://creativecommons.org/licenses/by/4.0)
